X:1
T:Title
%%score { ( 1 3 5 ) | ( 2 4 ) }
L:1/8
Q:1/4=100
M:4/4
K:Eb
V:1 treble nm="Grand Piano"
V:3 treble 
V:5 treble 
V:2 bass 
V:4 bass 
V:1
 [B,EG]2 [CEc]2 [EB]2 [=A,EG]2 | F4 z4 | [CEG]2 [Ge]2 [Fd]2 [Gc]2 | z4 [Fd]4 | e2 d2 c2 [GB]2 | %5
w: Frank~L.~Armstrong * * *|||||
 A4 z4 | [CEF]2 [EFc]2 [EB]2 [B,G]2 | F4 z4 | [DF]2 [DF]2 [DG]2 [DF]2 | [DB]3 [Dc] [EB]2 [E=A]2 | %10
w: |||||
 G2 =A2 G2 F2 | c3 d [Ec]2 B2 | e2 d2 c2 [GB]2 | A4 z4 | [CEF]2 [Ec]2 [EB]2 [B,G]2 | F4 z4 |] %16
w: ||||||
V:2
 E,2 A,,2 [G,,G,]2 C,2 | B,,2 z G C,2 C,2 | C,2 [C,G,]2 [D,=B,]2 [E,C]2 | [F,D]3 [F,=A,] B,2 z2 | %4
 [G,B,E]2 [G,=B,F]2[K:bass] [A,CE]2 [E,E]2 | [F,CE]2 [C,B,]2 D,2 E,2 | %6
 A,,2 =A,,2 [B,,G,]2 [E,G,]2 | [B,,A,]2 [B,,A,]2 [E,G,]4 | [B,,F,]2 [B,,F,]2 [B,,F,]2 [B,,F,]2 | %9
 [B,,F,]3 [B,,F,] [C,F,]2 [C,F,]2 | [F,=A,E]2 [F,A,E]2 [F,B,E]2 [F,A,E]2 | %11
 [F,=A,E]3 [F,A,F] z2[K:treble] D2 | [G,B,E]2 [G,=B,F]2[K:bass] [A,CE]2 [E,E]2 | %13
 [F,CE]2 [B,,B,]2 D,2 E,2 | A,,2 =A,,2 [B,,G,]2 [B,,G,]2 | [B,,A,]2 [B,,A,]2 [E,G,]4 |] %16
V:3
 x8 | [A,E]2 [G,D]2 [G,DF]2 [G,CE]2 | x8 | [FB]3 [Ec] z2 A,2 | x8 | z2 z B [B,FA]2 [B,EG]2 | x8 | %7
 E2 z G E4 | x8 | x8 | x8 | x8 | x8 | z2 z B [B,FA]2 [B,EG]2 | x8 | E2 z G E4 |] %16
V:4
 x8 | z2 =B,,2 z4 | x8 | z4 B,,4 | x4[K:bass] x4 | x8 | x8 | x8 | x8 | x8 | x8 | %11
 z4 [B,,B,]4[K:treble] | x4[K:bass] x4 | x8 | x8 | x8 |] %16
V:5
 x8 | x8 | x8 | x8 | x8 | z2 D2 z4 | x8 | z2 D2 z4 | x8 | x8 | x8 | x8 | x8 | z2 D2 z4 | x8 | %15
 z2 D2 z4 |] %16

